**kern	**kern	**dynam
*part1	*part1	*
*staff2	*staff1	*staff1/2
*ICklav	*ICklav	*
*Ipiano	*Ipiano	*
*I"	*I"	*
*>[A,A,B,B]	*>[A,A,B,B]	*>[A,A,B,B]
*>norep[A,B]	*>norep[A,B]	*>norep[A,B]
*>A	*>A	*>A
*clefF4	*clefG2	*
*k[b-]	*k[b-]	*
*F:	*F:	*
*M3/4	*M3/4	*
*MM144	*MM144	*
8F(L	2f(>	p
8A	.	.
8c	.	.
8A	.	.
8c	4a	.
8AJ	.	.
=	=	=
8FL	2cc	.
8c	.	.
8e-	.	.
8c	.	.
8e-	4a	.
8c)J	.	.
=	=	=
8F(L	2b-	.
8B-	.	.
8d	.	.
8B-	.	.
8d	4gg	.
8B-J	.	.
=	=	=
8FL	8ffL	.
8G	8ee)J	.
8B-	4ee	.
8G	.	.
8B-	4r	.
8G)J	.	.
=	=	=
4F 4A	4ff(	.
4r	4a	.
4r	4dd	.
=	=	=
.2r	4g	.
.	.4cc	.
.	8a)	.
=	=	=
4F(	.2f(	.
4AA	.	.
4D	.	.
=	=	=
*	*^	*
4GG	.2g)	4f(	.
.4C	.	8e>Lm	.
.	.	8dJ	.
.	.	4e)	.
8AA)	.	.	.
=	=	=	=
4FF(>	4a(	.2f[	.
4D	4b-	.	.
4BB-)	4dd)	.	.
=	=	=	=
4AA	8dd(L	4f]	.
.	8cc	.	.
4r	8b-	4rA	.
.	8a	.	.
4D	8g	4rA	.
.	8fJ	.	.
*	*v	*v	*
=	=	=
4BB-	4g	.
4r	4b-)	.
4C	4B- 4e	.
=	=	=
4FF	4A 4f	.
4r	4r	.
*clefG2	*	*
.8a(L .8cc(L	.8ccc(L	p
16gJk 16b-Jk	16bb-Jk	.
=	=	=
4f) 4a)	4aa)	.
4f 4a	4aa	.
.8f(L .8a(L	.8aa(L	.
16cJk 16gJk	16ggJk	.
=	=	=
4A) 4f)	4ff)	.
4A 4f	4ff	.
4A( 4f(	4ff(	.
=	=	=
4c) 4g)	4ee) 4gg)	.
4c' 4g'	4ee' 4gg'	.
4c' 4g'	4ee' 4gg'	.
=	=	=
4c( 4g(	4ee( 4gg(	.
4f) 4a)	4ff) 4aa)	.
.8a(L .8cc(L	16ccc(L	.
.	16ddd	.
.	16ccc	.
16gJk 16b-Jk	16bb-J	.
=	=	=
4f) 4a)	4aa)	.
4f 4a	4aa	.
.8f(L .8a(L	16aa(L	.
.	16bb-	.
.	16aa	.
16cJk 16gJk	16ggJ	.
=	=	=
4A) 4f)	4ff)	.
4A 4f	4ff	.
4A 4f	4ff	.
=	=	=
4c 4g	4gg(	.
4r	4bb-)	.
4c( 4g(	4b-( 4ee(	.
=	=	=
4f)	4a) 4ff)	.
4r	4r	.
4c( 4e( 4b-(	4ccc(	.
=	=	=
4f) 4a)	4ff)	.
4r	4r	.
*clefF4	*	*
4C( 4E( 4B-(	4cc(	.
=	=	=
4F) 4A)	4f)	.
4r	4r	.
4CC#( 4C#(	4c#(	f
=	=	=
8DD) 8D)	.4d)	.
8F(L	.	.
8A	.	.
8F	16f(>L	.
.	16aJ	.
8A	8ddL	.
8FJ	16aL	.
.	16ddJ	.
=	=	=
8DL	8ffL	.
8F	16ddL	.
.	16ffJ	.
8A	8aa')L	.
8F	8aa(	.
8A	8ff	.
8F)J	8dd)J	.
=	=	=
.	32cc#(>LL>q	.
.	32eeq	.
.	32ggJq	.
4EE 4E	.4bb-)	.
4E 4G 4B- 4c#	.	.
.	16aa(L	.
.	16ggJ	.
4r	16ffL	.
.	16ee	.
.	16dd	.
.	16cc#J	.
=	=	=
4EE 4E	.4bb-)	.
4E 4G 4B- 4c#	.	.
.	16aa(L	.
.	16ggJ	.
4r	16ffL	.
.	16ee	.
.	16dd	.
.	16cc#)J	.
=	=	=
8F(L	.4dd	.
8A	.	.
8d	.	.
8A	16f(>L	.
.	16aJ	.
8d	8ddL	.
8AJ	16aL	.
.	16ddJ	.
=	=	=
8FL	8ffL	.
8A	16ddL	.
.	16ffJ	.
8d	8aa')L	.
8A	8aa(	.
8d	8ff	.
8A)J	8dd)J	.
=	=	=
4DD 4D	.4bn .4dd .4ff .4aa-	.
4D 4F 4A- 4Bn	.	.
.	16gg(L	.
.	16ffJ	.
4r	16ee-L	.
.	16dd	.
.	16cc	.
.	16bJ	.
=	=	=
4DD 4D	.4aa-)	.
4D 4F 4A- 4Bn	.	.
.	16gg(L	.
.	16ffJ	.
4r	16ee-L	.
.	16dd	.
.	16cc	.
.	16bn)J	.
=	=	=
8E-(L	4cc([	.
8G	.	.
8c	16ccLL<]	.
.	16g	.
8G	16cc	.
.	16gJ	.
8c	16ee-L	.
.	16cc	.
8GJ	16ee-	.
.	16ccJ	.
=	=	=
8E-L	16ggL	.
.	16ee-	.
8G	16gg	.
.	16ee-J	.
8c	4ccc)	.
8G	.	.
8c	4r	.
8G)J	.	.
=	=	=
8C(L	4cc([	.
8E-	.	.
8A-	16ccL]	.
.	16a-	.
8E-	16cc	.
.	16a-J	.
8A-	16ee-L	.
.	16cc	.
8E-J	16ee-	.
.	16ccJ	.
=	=	=
8CL	16aa-L	.
.	16ee-	.
8E-	16aa-	.
.	16ee-J	.
8A-	4ccc)	.
8E-	.	.
8A-	4r	.
8E-)J	.	.
=	=	=
8AA-(L	4cc([	.
8C	.	.
8E-	16ccL]	.
.	16f#	.
8C	16cc	.
.	16f#J	.
8E-	16ee-L	.
.	16cc	.
8CJ	16ee-	.
.	16ccJ	.
=	=	=
8AA-L	16ff#L	.
.	16ee-	.
8C	16ff#	.
.	16ee-J	.
8E-	4ccc	.
8C	.	.
8E-	4ff#)	.
8C)J	.	.
=	=	=
.	32g(LL>q	.
.	32bnq	.
.	32dd)Jq	.
8GG(L	2gg(	.
8BBn	.	.
8D	.	.
8G	.	.
8C	16ffnL	.
.	16ee-	.
8E-J	16dd	.
.	16ccJ	.
=	=	=
8GGL	2gg	.
8BBn	.	.
8D	.	.
8G	.	.
8C	16ffL	.
.	16ee-	.
8E-)J	16dd	.
.	16ccJ	.
=	=	=
.4GG .4G	.4gg)	.
16A-(L	16aa-(L	.
16GJ	16ggJ	.
16FL	16ffL	.
16E-	16ee-	.
16D	16dd	.
16CJ	16ccJ	.
=	=	=
4G')	4gg')	.
4GG'	4g'	.
4r	4r	.
=	=	=
64C(>LL>q	32g(>qq	.
64GJq	.	.
4c)	8een)	p
.	8r	.
4r	8ee	.
.	8r	.
4r	8ee	.
.	8r	.
=	=	=
64G(>LL>q	32bn(</qq	.
64dJq	.	.
4f)	.4gg()	.
4r	.	.
.	8ff	.
4r	4dd)	.
=	=	=
*	*^	*
4C	8dd(L	4e	.
.	8cc)J	.	.
4E	2ryy	.4g(\ .4cc(\	.
4G	.	.	.
.	.	8bn) 8dd)	.
=	=	=	=
4c	2dd(	2bn(	.
4C	.	.	.
4r	4ee)	4cc)	.
*	*v	*v	*
=	=	=
4A(	.4ff(	.
4c) 4f)	.	.
.	32gg(LL>q	.
.	32ffq	.
.	32eeJq	.
.	8ff)L	.
4r	8gg	.
.	8aa)J	.
=	=	=
4Bn(	8aa(L	.
.	8gg	.
4d) 4g)	8ff#	.
.	8gg	.
4r	8ffn	.
.	8ddJ	.
=	=	=
4c	8dd#L	.
.	8ee	.
4A( 4c(	8ff	.
.	8ee	.
4F) 4dn)	8gg	.
.	8ffJ	.
=	=	=
4G 4Bn	8eeL	.
.	8ddn	.
4r	8cc	.
.	8bn	.
4r	8a	.
.	8g)J	.
*clefG2	*	*
=	=	=
12c(L	8dd#(L	.
12e	.	.
.	8ee)	.
12gJ	.	.
12cL	8dd#(	.
12e	.	.
.	8ee)	.
12gJ	.	.
12cL	8dd#(	.
12e	.	.
.	8ee)J	.
12gJ	.	.
=	=	=
12BnL	8ff#(L	.
12d	.	.
.	8gg)	.
12gJ	.	.
12BL	8ff#(	.
12d	.	.
.	8gg)	.
12gJ	.	.
12BL	8ffn(	.
12f	.	.
.	8ddn)J	.
12gJ	.	.
=	=	=
*	*^	*
4c) 4e)	4ryy	8dd(L	.
.	.	8cc)J	.
*clefF4	*	*	*
4E	8dd(L	4g	.
.	8cc)J	.	.
4G	8ee(L	4bn	.
.	8dd)J	.	.
=	=	=	=
4c	.4dd(	2bn(	.
4G	.	.	.
.	8dd#	.	.
4C	4ee)	4cc)	.
*clefG2	*	*	*
*	*v	*v	*
=	=	=
8A(L	.4ff	f
8c	.	.
8f	.	.
.	32gg(/LL>q	.
.	32ff/q	.
.	32ee)/Jq	.
8c	8ff(L	.
8A	8gg	.
8cJ	8aa)J	.
=	=	=
8BnL	8aa(L	.
8d	8gg	.
8g	8ff#	.
8d	8gg	.
8B	8ffn	.
8d)J	8ddJ	.
=	=	=
4c	8dd#L	.
.	8ee	.
*clefF4	*	*
4F 4dn	8gg	.
.	8ff	.
4G 4f	8ddn	.
.	8bn)J	.
=	=	=
4c 4e	8cc(L	.
.	8g)J	.
4e	8r	p
.	8g	.
4c	8r	.
.	8g	.
=	=	=
4d	8fL 8gL	.
.	8fJ 8gJ	.
4Bn	8r	.
.	8f 8g	.
4G	8r	.
.	8f 8g	.
=	=	=
4C	8e-L 8gL	.
.	8e-J 8gJ	.
4E-	8r	.
.	8e- 8g	.
4C	8r	.
.	8e- 8g	.
=	=	=
4D	8fL 8gL	.
.	8fJ 8gJ	.
4BBn	8r	.
.	8f 8g	.
4GG	8r	.
.	8f 8g	.
=	=	=
4CC 4C	8e-L 8gL	fp
.	8e-J 8gJ	.
4E-	8r	.
.	8e- 8g	.
4G	8r	.
.	8e- 8g	.
=	=	=
4FF 4F	8e-L 8a-L	fp
.	8e-J 8a-J	.
4A-	8r	.
.	8e- 8a-	.
4c	8r	.
.	8e- 8a-	.
=	=	=
4BBB-X 4BB-X	8dL 8a-L	fp
.	8dJ 8a-J	.
4D	8r	.
.	8d 8a-	.
4F	8r	.
.	8d 8a-	.
=	=	=
4EE- 4E-	8dL 8gL	fp
.	8dJ 8gJ	.
4G	8r	.
.	8d 8g	.
4B-	8r	.
.	8d 8g	.
=	=	=
4AAA- 4AA-	8cL 8gL	fp
.	8cJ 8gJ	.
4A-	8r	.
.	8c 8g	.
4DD 4D	8cL 8fL	fp
.	8cJ 8fJ	.
=	=	=
4d	8r	.
.	8c 8f	.
4GGG 4GG	8BnL 8fL	fp
.	8BJ 8fJ	.
4G	8r	.
.	8B 8f	.
=	=	=
4A-(	8r	.
.	8c 8e-	.
4G	8r	.
.	8c 8e-	.
4F#	8r	.
.	8c 8e-	.
=	=	=
4G)	8BnL 8dL	.
.	8e-( 8g(	.
4r	8d 8f	.
.	8c 8e-	.
8r	8B 8d	.
8F#(	8c)J 8e-)J	.
=	=	=
4G)	8BnL 8dL	.
.	8e-( 8g(	.
4r	8d 8f	.
.	8c 8e-	.
8r	8B 8d	.
8F#(	8cJ 8e-J	.
=	=	=
8GL	8BnL 8dL	.
8F#	8c 8e-	.
8G	8B 8d	.
8F#	8c 8e-	.
8G	8B 8d	.
8F#J	8cJ 8e-J	.
=	=	=
4G)	8Bn)L 8d)L	.
.	8A#( 8c#(	.
4r	8B 8d	.
.	8c# 8en	.
4r	8d 8fn	.
.	8e)J 8g)J	.
=	=	=
4Fn	4f 4a	.
4F	4cn 4f 4a	.
4F	4c 4f 4a	.
=	=	=
*	*^	*
2F(	2f( 2a(	.2c	.
4C)	4e) 4g)	.	.
=	=	=	=
4GG	16g(KL	4Bn 4d	.
.	.8f)J	.	.
4GG	4d 4f	4B	.
4GG	4d 4f	4B	.
*	*v	*v	*
=	=	=
2GG(	2Bn( 2d( 2f(	.
4AA)	4c) 4e)	.
=	=	=
4FF	8e(L 8g(L	.
.	8d)J 8f)J	.
4GG	4c( 4e(	.
4GG	4Bn) 4d)	.
=	=	=
4C	8c 8e	.
.	8cc'L	.
4r	8dd'	.
.	8ee'	.
4r	8ff'	.
.	8gg'J	.
=	=	=
4c 4f	4aa	.
4c 4f	4aa	.
4c 4f	4aa	.
=	=	=
*^	*	*
2f(	.2c	.4aa(	.
.	.	16bbnL	.
.	.	16aaJ	.
4e)	.	4gg)	.
=	=	=	=
*	*	*^	*
4d	4G	16gg(KL	4bn	.
.	.	.8ff)J	.	.
4d	4G	4ff	4b	.
4d	4G	4ff	4b	.
=	=	=	=	=
2d(	2G(	2ff(	2bn(	.
4c)	4A)	4ee)	4cc)	.
*v	*v	*	*	*
*	*v	*v	*
=	=	=
4F(	8ee(L 8gg(L	.
.	8dd)J 8ff)J	.
4G	4cc 4ee	.
4F)	4bn 4dd	.
=	=	=
8EE 8E	8eeL 8ggL	fp
8r	8eeJ 8ggJ	.
8G#	8r	.
8r	8dd 8ff	.
8A	8r	.
8r	8cc 8ee	.
=	=	=
8F	8r	.
8r	8f 8dd	.
8Gn	8r	.
8r	8e 8cc	.
8F	8r	.
8r	8d 8bn	.
=	=	=
4EE 4E	16r	.
.	16ee(L	f
.	16gg	.
.	16ee)J	.
4GG# 4G#	16r	.
.	16dd(L	.
.	16ff	.
.	16dd)J	.
4AA 4A	16r	.
.	16cc(L	.
.	16ee	.
.	16cc)J	.
=	=	=
4FF 4F	16r	.
.	16f(L	.
.	16dd	.
.	16f)J	.
4GGn 4Gn	16r	.
.	16e(L	.
.	16cc	.
.	16e)J	.
4GG 4G	16r	.
.	16d(L	.
.	16bn	.
.	16d)J	.
=	=	=
16C(L	4e 4g 4cc	.
16E	.	.
16G	.	.
16cJ	.	.
16CL	4r	.
16E	.	.
16G	.	.
16cJ	.	.
16CL	.8ee(Lt	.
16E	.	.
16G	.	.
16cJ	32ddL	.
.	32ccJ	.
=	=	=
16CL	2gg)	.
16E	.	.
16G	.	.
16cJ	.	.
16CL	.	.
16E	.	.
16G	.	.
16cJ	.	.
16CL	.8bbn(Lt	.
16F	.	.
16G	.	.
16cJ	32aaL	.
.	32ggJ	.
=	=	=
16CL	2ccc)	.
16E	.	.
16G	.	.
16cJ	.	.
16CL	.	.
16E	.	.
16G	.	.
16cJ	.	.
16CL	.8ee(Lt	.
16E	.	.
16G	.	.
16cJ	32ddL	.
.	32ccJ	.
=	=	=
16CL	4gg)	.
16E	.	.
16G	.	.
16cJ	.	.
16CL	4gg	.
16E	.	.
16G	.	.
16cJ	.	.
16CL	.8bbn(Lt	.
16F	.	.
16G	.	.
16c)J	32aaL	.
.	32ggJ	.
=	=	=
4C 4E 4G 4c	4ccc)	.
.4E .4e	.4eee	sf
8GG# 8G#	8gg#	.
=	=	=
4AA 4A	4aa	.
.4C .4c	.4ccc	sf
8E	8ee	.
=	=	=
.8F(LT	.8ff(LT	.
32EL	32eeL	.
32DJ	32ddJ	.
4Gn)	4ggn)	.
4GG 4G	4dd 4ff 4gg 4bbn	.
=	=	=
4C 4c	4ee 4gg 4ccc	.
4CC 4C	4c	.
4r	4r	.
=:|!|:	=:|!|:	=:|!|:
*>B	*>B	*>B
*	*^	*
4r	4g(	.2g	p
4E(	4cc	.	.
4C)	4ee)	.	.
=	=	=	=
.2G	2cc( 2ee(	.2g	.
.	4bn) 4dd)	.	.
=	=	=	=
4r	4gg(	4r	.
4E(	4cc	2g	.
4C)	4ee)	.	.
=	=	=	=
.2G	2cc( 2ee(	.2g	.
.	4bn) 4dd)	.	.
*	*v	*v	*
=	=	=
4F 4A 4d	4a(>	.
4r	4dd	.
4r	4ff	.
=	=	=
4F 4A 4d	4ee	.
4r	4dd)	.
4r	4aa([	.
=	=	=
.2G .2d .2f	4aa]	.
.	4gg	.
.	4bn)	.
=	=	=
4c 4e	8cc(L	.
.	8g	.
4r	8e	.
.	8g	.
4r	8f	.
.	8d)J	.
=	=	=
4r	.8c(L	f
.	16GJk	.
4E(	4c	.
4C)	4e)	.
=	=	=
.2GG .2G	2c((> 2e((>	.
.	4Bn) 4d)	.
=	=	=
*	*^	*
4r	4g(	4r	.
4E(	4c	2G	.
4C)	4e)	.	.
*	*v	*v	*
=	=	=
.2GG .2G	2c((> 2e((>	.
.	4Bn) 4d)	.
=	=	=
4FF 4AA 4D	4A(	.
4r	4d	.
4r	4f	.
=	=	=
4FF 4AA 4D	4e	.
4r	4d)	.
4r	4a([	.
=	=	=
4GG 4D 4F	4a]	>
4r	4g	.
4r	4Bn)	]
=	=	=
4C 4E	8c(L	.
.	8g)J	p
4e	8r	.
.	8g	.
4c	8r	.
.	8g	.
=	=	=
4d	8fL 8gL	.
.	8fJ 8gJ	.
4Bn	8r	.
.	8f 8g	.
4G	8r	.
.	8f 8g	.
=	=	=
4C	8e-L 8gL	.
.	8e-J 8gJ	.
4E-	8r	.
.	8e- 8g	.
4C	8r	.
.	8e- 8g	.
=	=	=
4D	8fL 8gL	.
.	8fJ 8gJ	.
4BBn	8r	.
.	8f 8g	.
4GG	8r	.
.	8f 8g	.
=	=	=
4CC 4C	8e-L 8gL	fp
.	8e-J 8gJ	.
4c	8r	.
.	8e- 8g	.
4C	8r	.
.	8e- 8g	.
=	=	=
4AAA 4AA	8cL 8e-L 8f#L	fp
.	8cJ 8e-J 8f#J	.
4A	8r	.
.	8c 8e- 8f#	.
4AA	8r	.
.	8c 8e- 8f#	.
=	=	=
4BBB-X 4BB-X	8dL 8gL	fp
.	8dJ 8gJ	.
4B-	8r	.
.	8d 8g	.
4BB-	8r	.
.	8d 8g	.
=	=	=
4FFF# 4FF#	8dL 8aL 8ccL	fp
.	8dJ 8aJ 8ccJ	.
4F#	8r	.
.	8d 8a 8cc	.
4FF#	8r	.
.	8d 8a 8cc	.
=	=	=
4GGG 4GG	8dL 8gL 8b-XL	fp
.	8dJ 8gJ 8b-J	.
4G	8r	.
.	8d 8g 8b-	.
4GG	8r	.
.	8d 8g 8b-	.
=	=	=
4EEn 4En	8gL 8b-L 8cc#L	fp
.	8gJ 8b-J 8cc#J	.
4e	8r	.
.	8g 8b- 8cc#	.
4E	8r	.
.	8g 8b- 8cc#	.
=	=	=
4FFn 4Fn	8aL 8ddL	fp
.	8aJ 8ddJ	.
4f	8r	.
.	8a 8dd	.
4F	8r	.
.	8a 8dd	.
=	=	=
4CC# 4C#	8aL 8eeL 8ggL	fp
.	8aJ 8eeJ 8ggJ	.
4c#	8r	.
.	8a 8ee 8gg	.
4C#	8r	.
.	8a 8ee 8gg	.
=	=	=
4DD 4D	8aL 8ddL 8ffL	fp
.	8aJ 8ddJ 8ffJ	.
4d	8r	.
.	8a 8dd 8ff	.
4D	8r	.
.	8a 8dd 8ff	.
=	=	=
4BBB- 4BB-	8ddL 8gg#L	fp
.	8ddJ 8gg#J	.
4B-	8r	.
.	8dd 8gg#	.
4BB-	8r	.
.	8dd 8gg#	.
=	=	=
4AA	8cc# 8aa	.
.	8ff(L 8aa(L	.
4r	8ee 8ggn	.
.	8dd 8ff	.
*clefG2	*	*
8r	8cc# 8ee	.
8g#(	8ddJ 8ffJ	.
=	=	=
4a)	8cc#) 8ee)	.
.	8f(L 8a(L	.
4r	8e 8g	.
.	8d 8f	.
*clefF4	*	*
8r	8c# 8e	.
8G#(	8dJ 8fJ	.
=	=	=
8AL	8c#L 8eL	.
8G#	8d 8f	.
8A	8c# 8e	.
8G#	8d 8f	.
8A	8c# 8e	.
8G#J	8dJ 8fJ	.
=	=	=
4A)	4c#) 4e)	.
4r	4r	.
4r	4r	.
=	=	=
8A(L	8cn(L 8e(L	pp
8G#	8d 8f	.
8A	8c 8e	.
8G#	8d 8f	.
8A	8c 8e	.
8G#J	8dJ 8fJ	.
=	=	=
4A)	4c) 4e)	.
4r	4r	.
4r	4r	.
=	=	=
*^	*^	*
.2B-X[	8Gn(L	8e(L	.2c[	f
.	8A	8f	.	.
.	8G	8e	.	.
.	8A	8f	.	.
.	8G	8e	.	.
.	8AJ	8fJ	.	.
=	=	=	=	=
4B-]	4G)	4e)	4c]	.
2ryy	4r	4r	2ryy	.
.	4r	4r	.	.
*clefG2	*clefG2	*	*	*
=	=	=	=	=
8g(L	.2c[	8bb-(L	.2ee[	p
8f#	.	8aa	.	.
8g	.	8bb-	.	.
8f#	.	8aa	.	.
8g	.	8bb-	.	.
8f#J	.	8aaJ	.	.
=	=	=	=	=
4g)	4c]	4bb-)	4ee]	.
4r	2ryy	2ryy	4r	.
4r	.	.	4r	.
*clefF4	*clefF4	*	*	*
*	*	*v	*v	*
*v	*v	*	*
=	=	=
8F(L	2f(>	p
8A	.	.
8c	.	.
8A	.	.
8c	4a	.
8AJ	.	.
=	=	=
8FL	2cc	.
8c	.	.
8e-	.	.
8c	.	.
8e-	4a	.
8c)J	.	.
=	=	=
8F(L	2b-	.
8B-	.	.
8d	.	.
8B-	.	.
8d	4gg	.
8B-J	.	.
=	=	=
8FL	8ffL	.
8G	8ee)J	.
8B-	4ee	.
8G	.	.
8B-)	4r	.
8GJ	.	.
=	=	=
4F 4A	4ff(	.
4r	4a	.
4r	4dd	.
=	=	=
.2r	4g	.
.	.4cc	.
.	8a)	.
=	=	=
4F(	.2f[	.
4AA	.	.
4D	.	.
=	=	=
*	*^	*
4GG	.2g	4f(]	.
.4C	.	8eLm	.
.	.	8dJ	.
.	.	4e)	.
8AA)	.	.	.
=	=	=	=
4FF(>	4a(	.2f[	.
4D	4b-	.	.
4BB-)	4dd)	.	.
=	=	=	=
4AA	8ddL	4f]	.
.	8cc(	.	.
4r	8b-	4r	.
.	8a	.	.
4D	8g	4r	.
.	8fJ	.	.
*	*v	*v	*
=	=	=
4BB-	4g	.
4r	4b-)	.
4C	4B- 4e	.
=	=	=
4FF	4A 4f	.
4r	4r	.
*clefG2	*	*
.8a(L .8cc(L	.8ccc(L	p
16gJk 16b-Jk	16bb-Jk	.
=	=	=
4f) 4a)	4aa)	.
4f 4a	4aa	.
.8f(L .8a(L	.8aa(L	.
16cJk 16gJk	16ggJk	.
=	=	=
4A) 4f)	4ff)	.
4A 4f	4ff	.
4A( 4f(	4ff(	.
=	=	=
4c) 4g)	4ee) 4gg)	.
4c' 4g'	4ee' 4gg'	.
4c' 4g'	4ee' 4gg'	.
=	=	=
4c( 4g(	4ee( 4gg(	.
4f) 4a)	4ff) 4aa)	.
.8a(L .8cc(L	16ccc(L	.
.	16ddd	.
.	16ccc	.
16gJk 16b-Jk	16bb-J	.
=	=	=
4f) 4a)	4aa)	.
4f 4a	4aa	.
.8f(L .8a(L	16aa(L	.
.	16bb-	.
.	16aa	.
16cJk 16gJk	16ggJ	.
=	=	=
4A) 4f)	4ff)	.
4A 4f	4ff	.
4A 4f	4ff	.
=	=	=
4c 4g	4gg(	.
4r	4bb-)	.
4c( 4g(	4b-( 4ee(	.
=	=	=
4f)	4a) 4ff)	.
4r	4r	.
4c( 4e( 4b-(	4ccc(	.
=	=	=
4f) 4a)	4ff)	.
4r	4r	.
*clefF4	*	*
4C( 4E( 4B-(	4cc(	.
=	=	=
4F) 4A)	4f)	.
4r	4r	.
4CC#( 4C#(	4c#(	f
=	=	=
8DD) 8D)	.4d)	.
8F(L	.	.
8A	.	.
8F	16f(>L	.
.	16aJ	.
8A	8ddL	.
8FJ	16aL	.
.	16ddJ	.
=	=	=
8DL	8ffL	.
8F	16ddL	.
.	16ffJ	.
8A	8aa')L	.
8F	8aa(	.
8A)	8ff	.
8FJ	8dd)J	.
=	=	=
.	32cc#(>LL>q	.
.	32eeq	.
.	32ggJq	.
4EE 4E	.4bb-)	.
4E 4G 4B- 4c#	.	.
.	16aa(L	.
.	16ggJ	.
4r	16ffL	.
.	16ee	.
.	16dd	.
.	16cc#J	.
=	=	=
4EE 4E	.4bb-)	.
4E 4G 4B- 4c#	.	.
.	16aa(L	.
.	16ggJ	.
4r	16ffL	.
.	16ee	.
.	16dd	.
.	16cc#)J	.
=	=	=
8F(L	.4dd	.
8A	.	.
8d	.	.
8A	16f(>L	.
.	16aJ	.
8d	8ddL	.
8AJ	16aL	.
.	16ddJ	.
=	=	=
8FL	8ffL	.
8A	16ddL	.
.	16ffJ	.
8d	8aa')L	.
8A	8aa(	.
8d	8ff	.
8A)J	8dd)J	.
=	=	=
4DD 4D	.4bn .4dd .4ff .4aa-	.
4D 4F 4A- 4Bn	.	.
.	16gg(L	.
.	16ffJ	.
4r	16ee-L	.
.	16dd	.
.	16cc	.
.	16bJ	.
=	=	=
4DD 4D	.4aa-)	.
4D 4F 4A- 4Bn	.	.
.	16gg(L	.
.	16ffJ	.
4r	16ee-L	.
.	16dd	.
.	16cc	.
.	16bn)J	.
=	=	=
8E-(L	.4cc	.
8G	.	.
8c	.	.
8G	16e-(>L	.
.	16gJ	.
8c	8ccL	.
8GJ	16gL	.
.	16ccJ	.
=	=	=
8E-L	8ee-L	.
8G	16ccL	.
.	16ee-J	.
8c	8gg')L	.
8G	8gg(	.
8c	8ee-	.
8G)J	8cc)J	.
=	=	=
4EE-	.4an .4cc .4ee- .4gg-	.
4E- 4G- 4An 4c	.	.
.	16ff(L	.
.	16ee-J	.
4r	16dd-L	.
.	16cc	.
.	16b-	.
.	16aJ	.
=	=	=
4EE-	.4gg-)	.
4E- 4G- 4A 4c	.	.
.	16ff(L	.
.	16ee-J	.
4r	16dd-L	.
.	16cc	.
.	16b-	.
.	16a)J	.
=	=	=
8D-(L	4b-([	.
8F	.	.
8B-	16b-L]	.
.	16f	.
8F	16b-	.
.	16fJ	.
8B-	16dd-L	.
.	16b-	.
8FJ	16dd-	.
.	16b-J	.
=	=	=
8D-L	16ffL	.
.	16dd-	.
8F	16ff	.
.	16dd-J	.
8B-	4bb-)	.
8F	.	.
8B-	4r	.
8F()J	.	.
=	=	=
8CL	4an(>[	.
8F	.	.
8An	16aL]	.
.	16f	.
8F	16a	.
.	16fJ	.
8A	16ccL	.
.	16a	.
8FJ	16cc	.
.	16aJ	.
=	=	=
8CL	16ffL	.
.	16cc	.
8F	16ff	.
.	16ccJ	.
8A	4aa)	.
8F	.	.
8A	4r	.
8F)J	.	.
=	=	=
8BBn(L	4a-(>[	.
8F	.	.
8A-	16a-L]	.
.	16f	.
8F	16a-	.
.	16fJ	.
8A-	16ddnL	.
.	16a-	.
8FJ	16dd	.
.	16a-J	.
=	=	=
8BBnL	16ffL	.
.	16dd	.
8F	16ff	.
.	16ddJ	.
8A-	4aa-	.
8F	.	.
8A-	4ff)	.
8F)J	.	.
=	=	=
.	32cc(LL>q	.
.	32eenq	.
.	32gg)Jq	.
8CL	2ccc(	.
8En	.	.
8G(	.	.
8c	.	.
8F	16bb-XL	.
.	16aa-	.
8A-J	16gg	.
.	16ffJ	.
=	=	=
8CL	2ccc	.
8E	.	.
8G	.	.
8c	.	.
8F	16bb-L	.
.	16aa-	.
8A-)J	16gg	.
.	16ffJ	.
=	=	=
.4c	.4cc)	.
16d-(L	16dd-(L	.
16cJ	16ccJ	.
16B-L	16b-L	.
16A-	16a-	.
16G	16g	.
16FJ	16fJ	.
=	=	=
4c')	4cc')	.
4CC' 4C'	4c'	.
4r	4r	.
=	=	=
64FF(>LL>q	32c(>qq	.
64CJq	.	.
4F)	8an')	p
.	8r	.
4r	8a'	.
.	8r	.
4r	8a'	.
.	8r	.
=	=	=
64C(>LL>q	32e(>/qq	.
64GJq	.	.
4B-)	.4cc()	.
4r	.	.
.	8b-)	.
4r	4g	.
=	=	=
*	*^	*
4FF	8g(L	4A	.
.	8f)J	.	.
4AA	.4c((> .4f((>	2ryy	.
4C	.	.	.
.	8e) 8g)	.	.
*	*v	*v	*
=	=	=
4F	2e((> 2g((>	.
4FF	.	.
4r	4f) 4a)	.
=	=	=
4D(	.4b-	.
4F) 4B-)	.	.
.	32cc(LL>q	.
.	32b-q	.
.	32aJq	.
.	8b-()L	.
4r	8cc	.
.	8dd)J	.
=	=	=
4E(	8dd(L	.
.	8cc	.
4G) 4c)	8bn	.
.	8cc	.
4r	8b-	.
.	8gJ	.
=	=	=
4F	8g#L	.
.	8a	.
4D 4F	8b-	.
.	8a	.
4BB- 4G	8cc	.
.	8b-J	.
=	=	=
4C 4E	8aL	.
.	8gn	.
4r	8f	.
.	8e	.
4r	8d	.
.	8c)J	.
=	=	=
12F(L	8g#(L 8gg#(L	.
12A	.	.
.	8a) 8aa)	.
12cJ	.	.
12FL	8g#( 8gg#(	.
12A	.	.
.	8a) 8aa)	.
12cJ	.	.
12FL	8g#( 8gg#(	.
12A	.	.
.	8a)J 8aa)J	.
12cJ	.	.
=	=	=
12EL	8bn(L 8bbn(L	.
12G	.	.
.	8cc) 8ccc)	.
12cJ	.	.
12EL	8b( 8bb(	.
12G	.	.
.	8cc) 8ccc)	.
12cJ	.	.
12EL	8bb-(	.
12B-	.	.
.	8ggn)J	.
12cJ	.	.
=	=	=
*	*^	*
4F) 4A)	4ryy	8gg(L	.
.	.	8ff)J	.
4A	8gg(L	4cc	.
.	8ff)J	.	.
4c	8aa(L	4ee	.
.	8gg)J	.	.
=	=	=	=
4f	.4gg(	2ee(	.
4c	.	.	.
.	8gg#	.	.
4F	4aa)	4ff)	.
*clefG2	*	*	*
*	*v	*v	*
=	=	=
8d(L	.4bb-	f
8f	.	.
8b-	.	.
.	32ccc(LL>q	.
.	32bb-q	.
.	32aa)Jq	.
8f	8bb-(L	.
8d	8ccc	.
8fJ	8ddd)J	.
=	=	=
8eL	8ddd(L	.
8g	8ccc	.
8cc	8bbn	.
8g	8ccc	.
8e	8bb-	.
8g)J	8ggJ	.
=	=	=
4f	8gg#L	.
.	8aa	.
4B- 4gn	8ccc	.
.	8bb-	.
4c 4b-	8ggn	.
.	8ee)J	.
=	=	=
4f 4a	8ff(L	.
.	8cc)J	p
4a	8r	.
.	8cc	.
4f	8r	.
.	8cc	.
=	=	=
4g	8b-L 8ccL	.
.	8b-J 8ccJ	.
4e	8r	.
.	8b- 8cc	.
4c	8r	.
.	8b- 8cc	.
*clefF4	*	*
=	=	=
4F	8a-L< 8ccL<	.
.	8a-J 8ccJ	.
4A-	8r	.
.	8a- 8cc	.
4F	8r	.
.	8a- 8cc	.
=	=	=
4G	8b-L 8ccL	.
.	8b-J 8ccJ	.
4E	8r	.
.	8b- 8cc	.
4C	8r	.
.	8b- 8cc	.
=	=	=
4FF 4F	8a-L< 8ccL<	fp
.	8a-J 8ccJ	.
4A-	8r	.
.	8a- 8cc	.
4c	8r	.
.	8a- 8cc	.
=	=	=
4BB- 4B-	8a-L 8dd-L	fp
.	8a-J 8dd-J	.
4d-	8r	.
.	8a- 8dd-	.
4f	8r	.
.	8a- 8dd-	.
=	=	=
4EE- 4E-	8gL< 8dd-L<	fp
.	8gJ 8dd-J	.
4G	8r	.
.	8g 8dd-	.
4B-	8r	.
.	8g 8dd-	.
=	=	=
4AA- 4A-	8gL 8ccL	fp
.	8gJ 8ccJ	.
4c	8r	.
.	8g 8cc	.
4e-	8r	.
.	8g 8cc	.
=	=	=
4DD- 4D-	8fL 8ccL	fp
.	8fJ 8ccJ	.
4d-	8r	.
.	8f 8cc	.
4GG 4G	8fL 8b-L	fp
.	8fJ 8b-J	.
=	=	=
4g	8r	.
.	8f 8b-	.
4CC 4C	8enL 8b-L	fp
.	8eJ 8b-J	.
4c	8r	.
.	8e 8b-	.
=	=	=
4d-(	8r	.
.	8f 8a-	.
4c	8r	.
.	8f 8a-	.
4Bn	8r	.
.	8f 8a-	.
=	=	=
4c)	8eL 8gL	.
.	8a-( 8cc(	.
4r	8g 8b-	.
.	8f 8a-	.
8r	8e 8g	.
8Bn(	8fJ 8a-J	.
=	=	=
4c)	8e)L 8g)L	.
.	8a-( 8cc(	.
4r	8g 8b-	.
.	8f 8a-	.
8r	8e 8g	.
8Bn(	8f)J 8a-)J	.
=	=	=
8cL	8e(L 8g(L	.
8Bn	8f 8a-	.
8c	8e 8g	.
8B	8f 8a-	.
8c	8e 8g	.
8BJ	8fJ 8a-J	.
=	=	=
4c)	8eL 8gL	.
.	8d# 8f#	.
4r	8e 8g	.
.	8f#X 8an	.
4r	8g 8b-	.
.	8a)J 8cc)J	.
=	=	=
*	*^	*
4B-X	4b-/ 4dd/	4ryy	.
4B-	4b- 4dd	4fn	.
4B-	4b- 4dd	4f	.
=	=	=	=
2B-(	2b-( 2dd(	.2f	.
4F)	4a) 4cc)	.	.
=	=	=	=
4C	16cc(KL	4e 4g	.
.	.8b-)J	.	.
4C	4g 4b-	4e	.
4C	4g 4b-	4e	.
*	*v	*v	*
=	=	=
2C(>	2e((> 2g((> 2b-((>	.
4D)	4f) 4a)	.
=	=	=
4BB-	8a(L 8cc(L	.
.	8g)J 8b-)J	.
4C	4f( 4a(	.
4C	4e) 4g)	.
=	=	=
4F	8f 8a	.
.	8ff'L	.
4r	8gg'	.
.	8aa'	.
4r	8bb-'	.
.	8ccc'J	.
*clefG2	*	*
=	=	=
4f 4b-	4ddd	.
4f 4b-	4ddd	.
4f 4b-	4ddd	.
=	=	=
*^	*	*
2b-(	.2f	.4ddd(	.
.	.	16eeeL	.
.	.	16dddJ	.
4a)	.	4ccc)	.
=	=	=	=
*	*	*^	*
4g	4c	16ccc(KL	4ee	.
.	.	.8bb-)J	.	.
4g	4c	4bb-	4ee	.
4g	4c	4bb-	4ee	.
=	=	=	=	=
2g(	2c(	2bb-(	2ee(	.
4f)	4d)	4aa)	4ff)	.
*clefF4	*clefF4	*	*	*
*	*	*v	*v	*
*v	*v	*	*
=	=	=
4B-(	8aa(L 8ccc(L	.
.	8gg)J 8bb-)J	.
4c	4ff 4aa	.
4B-)	4ee 4gg	.
=	=	=
8AA 8A	8aaL 8cccL	fp
8r	8aaJ 8cccJ	.
8c#	8r	.
8r	8gg 8bb-	.
8d	8r	.
8r	8ff 8aa	.
=	=	=
8B-	8r	.
8r	8b- 8gg	.
8cn	8r	.
8r	8a 8ff	.
8B-	8r	.
8r	8g 8ee	.
=	=	=
8AA 8A	16r	.
.	16aa(L	f
8r	16ccc	.
.	16aa)J	.
8C# 8c#	16r	.
.	16gg(L	.
8r	16bb-	.
.	16gg)J	.
8D 8d	16r	.
.	16ff(L	.
8r	16aa	.
.	16ff)J	.
=	=	=
8BB- 8B-	16r	.
.	16b-(L	.
8r	16gg	.
.	16b-)J	.
8Cn 8cn	16r	.
.	16a(L	.
8r	16ff	.
.	16a)J	.
8CC 8C	16r	.
.	16g(LL<	.
8r	16ee	.
.	16g)J	.
=	=	=
16FF(L	4a 4cc 4ff	.
16AA	.	.
16C	.	.
16FJ	.	.
16FFL	4r	.
16AA	.	.
16C	.	.
16FJ	.	.
16FFL	.8a(>Lt	.
16AA	.	.
16C	.	.
16FJ	32gL	.
.	32fJ	.
=	=	=
16FFL	2cc)	.
16AA	.	.
16C	.	.
16FJ	.	.
16FFL	.	.
16AA	.	.
16C	.	.
16FJ	.	.
16FFL	.8ee(Lt	.
16BB-	.	.
16C	.	.
16FJ	32ddL	.
.	32ccJ	.
=	=	=
16FFL	2ff)	.
16AA	.	.
16C	.	.
16FJ	.	.
16FFL	.	.
16AA	.	.
16C	.	.
16FJ	.	.
16FFL	.8aa(LT	.
16AA	.	.
16C	.	.
16FJ	32ggL	.
.	32ffJ	.
=	=	=
16FFL	4ccc')	.
16AA	.	.
16C	.	.
16FJ	.	.
16FFL	4ccc'	.
16AA	.	.
16C	.	.
16FJ	.	.
16FFL	.8eee(Lt	.
16BB-	.	.
16C	.	.
16F)J	32dddL	.
.	32cccJ	.
=	=	=
4FF 4AA 4C 4F	4fff)	.
.4AA .4A	.4aa	sf
8C# 8c#	8cc#	.
=	=	=
4D 4d	4dd	.
.4F .4f	.4ff	sf
8A	8a	.
=	=	=
.8B-(LT	.8b-(LT	.
32AL	32aL	.
32GJ	32gJ	.
4cn)	4ccn)	.
4C 4c	4g 4cc 4ee	.
=	=	=
4F 4f	4a 4cc 4ff	.
4FF 4F	4f	.
4r	4r	.
==:|!	==:|!	==:|!
*-	*-	*-
